tebu-icon-theme/usr/share/icons/Tebu/actions/scalable/document-open-recent-symbolic.svg

<?xml version="1.0" encoding="UTF-8" standalone="no"?>
<!-- Created with Inkscape (http://www.inkscape.org/) -->

<svg
   xmlns:dc="http://purl.org/dc/elements/1.1/"
   xmlns:cc="http://creativecommons.org/ns#"
   xmlns:rdf="http://www.w3.org/1999/02/22-rdf-syntax-ns#"
   xmlns:svg="http://www.w3.org/2000/svg"
   xmlns="http://www.w3.org/2000/svg"
   xmlns:sodipodi="http://sodipodi.sourceforge.net/DTD/sodipodi-0.dtd"
   xmlns:inkscape="http://www.inkscape.org/namespaces/inkscape"
   width="16"
   height="16"
   id="svg2"
   sodipodi:version="0.32"
   inkscape:version="0.48.1 r9760"
   version="1.0"
   sodipodi:docname="document-open-recent.svg"
   inkscape:output_extension="org.inkscape.output.svg.inkscape">
  <defs
     id="defs4" />
  <sodipodi:namedview
     id="base"
     pagecolor="#ffffff"
     bordercolor="#9a9a9a"
     borderopacity="1"
     inkscape:pageopacity="0.0"
     inkscape:pageshadow="2"
     inkscape:zoom="28.328952"
     inkscape:cx="2.2223597"
     inkscape:cy="10.459358"
     inkscape:document-units="px"
     inkscape:current-layer="layer3"
     showgrid="true"
     inkscape:showpageshadow="false"
     showguides="true"
     inkscape:guide-bbox="true"
     inkscape:window-width="1920"
     inkscape:window-height="1028"
     inkscape:window-x="0"
     inkscape:window-y="25"
     inkscape:window-maximized="1">
    <sodipodi:guide
       orientation="0,1"
       position="26.278146,128"
       id="guide2385" />
    <sodipodi:guide
       orientation="1,0"
       position="128,54.082119"
       id="guide2387" />
    <inkscape:grid
       type="xygrid"
       id="grid3672"
       visible="true"
       enabled="true" />
  </sodipodi:namedview>
  <metadata
     id="metadata7">
    <rdf:RDF>
      <cc:Work
         rdf:about="">
        <dc:format>image/svg+xml</dc:format>
        <dc:type
           rdf:resource="http://purl.org/dc/dcmitype/StillImage" />
      </cc:Work>
    </rdf:RDF>
  </metadata>
  <g
     inkscape:groupmode="layer"
     id="layer3"
     inkscape:label="Arrow"
     style="display:inline">
    <path
       id="path3281"
       style="fill:#bebebe;fill-opacity:1;stroke:none"
       d="m 0.359,7.0163191 3.1964787,4.8062519 3.4363003,-4.8062519 -2.2321542,0 C 4.954073,4.8389483 6.7477141,3.1470005 8.9449141,3.1470005 c 2.3273939,1.2e-6 4.2085409,1.9088008 4.2085409,4.2704064 0,2.3616041 -1.881147,4.2704051 -4.2085409,4.2704051 l 0,2.147 c 3.4910909,0 6.3244379,-2.874998 6.3244379,-6.4174051 C 15.269353,3.8749998 12.436005,1 8.9449141,1 5.5864088,1 2.8477449,3.660275 2.6437286,7.0163191 l -2.2847286,0 z M 8.6398474,3.5868692 8.013594,8.2740819 11.896528,9.5991908 9.3372957,7.324121 8.6398474,3.5868692 z"
       sodipodi:nodetypes="ccccssccssccccccc"
       inkscape:connector-curvature="0"
       inkscape:transform-center-x="0.88591109"
       inkscape:transform-center-y="-0.582594" />
  </g>
</svg>

<?xml version="1.0" encoding="UTF-8" standalone="no"?>
<!-- Created with Inkscape (http://www.inkscape.org/) -->
<svg id="svg2" xmlns:rdf="http://www.w3.org/1999/02/22-rdf-syntax-ns#" xmlns="http://www.w3.org/2000/svg" height="16" width="16" version="1.0" xmlns:cc="http://creativecommons.org/ns#" xmlns:dc="http://purl.org/dc/elements/1.1/">
 <metadata id="metadata7">
  <rdf:RDF>
   <cc:Work rdf:about="">
    <dc:format>image/svg+xml</dc:format>
    <dc:type rdf:resource="http://purl.org/dc/dcmitype/StillImage"/>
   </cc:Work>
  </rdf:RDF>
 </metadata>
 <g id="layer3">
  <path id="path3281" d="m0.359 7.0163 3.1965 4.8063 3.4363-4.8063h-2.2322c0.1945-2.1778 1.9881-3.8697 4.1853-3.8697 2.3274 0.0000012 4.2085 1.9088 4.2085 4.2704s-1.8811 4.2704-4.2085 4.2704v2.147c3.4911 0 6.3244-2.875 6.3244-6.4174 0-3.5426-2.833-6.4176-6.3241-6.4176-3.3585 0-6.0972 2.6603-6.3012 6.0163h-2.2847zm8.2808-3.4294-0.6262 4.6872 3.8834 1.3251-2.5597-2.2751-0.6975-3.7372z" fill="#bebebe"/>
 </g>
</svg>
